images/outside-box.svg

<svg fill="none" height="343" viewBox="0 0 375 343" width="375" xmlns="http://www.w3.org/2000/svg"><g stroke-miterlimit="10"><path d="m289.033 76.5461c.43-1.3554.86-2.372 1.721-3.3885l-4.732-3.3885c2.151-2.7107 5.162-5.0826 8.603-6.7769l4.301 3.7273c1.29-.6777 2.581-1.0165 3.871-1.3554l.43-5.0826c1.721-.3389 3.871-.6777 6.022-.6777s3.871.3388 6.022.6777l-.861 5.0826c1.291.3389 3.011.6777 4.302 1.3554l5.591-3.3884c3.441 1.6942 6.022 3.7273 8.173 6.438l-5.162 3.7274c.86 1.0165 1.291 2.3719 1.721 3.7273h6.882c.43 1.3553.43 2.7107.43 4.405 0 1.6942-.43 3.3884-.86 4.7438h-6.882c-.431 1.0165-.861 2.3719-1.721 3.3885l5.162 3.3884c-2.151 2.7108-5.162 5.0827-9.033 7.1155l-3.871-3.727c-1.291.6777-3.011 1.3554-4.301 1.6942v4.7438c-1.721.339-3.872.678-6.022.678-2.151 0-3.871-.339-6.022-.678v-4.7438c-1.72-.3388-3.011-1.0165-4.301-1.3554l-4.301 3.0497c-3.441-1.6943-6.022-4.0662-8.173-6.777l4.732-2.7107c-.861-1.0166-1.291-2.372-2.151-3.3885l-6.452-.3388c-.43-1.6943-.86-3.0497-.86-4.7439 0-1.3554 0-3.0496.43-4.405z" stroke="#563a5f" stroke-width="3"/><path d="m289.033 76.5461c.43-1.3554.86-2.372 1.721-3.3885l-4.732-3.3885c2.151-2.7107 5.162-5.0826 8.603-6.7769l4.301 3.7273c1.29-.6777 2.581-1.0165 3.871-1.3554l.43-5.0826c1.721-.3389 3.871-.6777 6.022-.6777s3.871.3388 6.022.6777l-.861 5.0826c1.291.3389 3.011.6777 4.302 1.3554l5.591-3.3884c3.441 1.6942 6.022 3.7273 8.173 6.438l-5.162 3.7274c.86 1.0165 1.291 2.3719 1.721 3.7273h6.882c.43 1.3553.43 2.7107.43 4.405 0 1.6942-.43 3.3884-.86 4.7438h-6.882c-.431 1.0165-.861 2.3719-1.721 3.3885l5.162 3.3884c-2.151 2.7108-5.162 5.0827-9.033 7.1155l-3.871-3.727c-1.291.6777-3.011 1.3554-4.301 1.6942v4.7438c-1.721.339-3.872.678-6.022.678-2.151 0-3.871-.339-6.022-.678v-4.7438c-1.72-.3388-3.011-1.0165-4.301-1.3554l-4.301 3.0497c-3.441-1.6943-6.022-4.0662-8.173-6.777l4.732-2.7107c-.861-1.0166-1.291-2.372-2.151-3.3885l-6.452-.3388c-.43-1.6943-.86-3.0497-.86-4.7439 0-1.3554 0-3.0496.43-4.405z" stroke="#563a5f" stroke-linecap="round" stroke-linejoin="round" stroke-width="3"/><path d="m322.583 78.9182c1.72 7.7934-6.452 14.2315-16.345 12.8761-5.592-.6777-9.893-4.405-10.753-8.4711-1.721-7.7935 6.452-14.2316 16.344-12.8762 5.592.6777 9.893 4.405 10.754 8.4712z" stroke="#563a5f" stroke-width="3"/><g stroke-linecap="round" stroke-linejoin="round"><path d="m322.583 78.9182c1.72 7.7934-6.452 14.2315-16.345 12.8761-5.592-.6777-9.893-4.405-10.753-8.4711-1.721-7.7935 6.452-14.2316 16.344-12.8762 5.592.6777 9.893 4.405 10.754 8.4712z" stroke="#563a5f" stroke-width="3"/><path d="m187.524 341.185-141.9414-42.695v-109.108c0-1.356 1.2904-2.033 3.0109-1.695l138.9305 37.612" stroke="#563a5f" stroke-width="3"/><path d="m187.524 341.186 141.511-42.695v-111.481l-141.511 38.29" stroke="#563a5f" stroke-width="3"/><path d="m96.3372 73.1573c0-16.2647-16.7749-29.1408-36.9908-29.1408-20.646 0-36.9907 13.215-36.9907 29.1408 0 11.8596 9.0326 22.025 21.9363 26.7688v17.9589h30.5389v-17.9589c12.4737-4.405 21.5063-14.9092 21.5063-26.7688z" stroke="#563a5f" stroke-width="3"/><path d="m43.862 125h30.5389" stroke="#563a5f" stroke-width="3"/><path d="m43.862 131.777h30.5389" stroke="#563a5f" stroke-width="3"/><path d="m49.8838 138.554h18.4954" stroke="#563a5f" stroke-width="3"/><path d="m213.331 307.978 31.4-8.81" stroke="#563a5f" stroke-width="3"/><path d="m48.1632 186.332 139.3608-38.967 141.511 39.645" stroke="#563a5f" stroke-width="3"/><path d="m187.524 225.299v115.885" stroke="#563a5f" stroke-width="3"/><path d="m126.016 161.597c0 10.165-10.323 18.297-23.227 18.297-12.9034 0-23.2264-8.132-23.2264-18.297 0-10.166 10.323-18.298 23.2264-18.298 12.904 0 23.227 8.132 23.227 18.298z" stroke="#3b3b45" stroke-width="2"/><path d="m126.016 161.597c0 10.165-10.323 18.297-23.227 18.297-12.9034 0-23.2264-8.132-23.2264-18.297 0-10.166 10.323-18.298 23.2264-18.298 12.904 0 23.227 8.132 23.227 18.298z" stroke="#563a5f" stroke-width="3"/><path d="m103.219 150.076v20.669" stroke="#563a5f" stroke-width="3"/><path d="m89.8852 160.58h26.2378" stroke="#563a5f" stroke-width="3"/><path d="m187.524 18.2646c0-8.80998-9.033-16.2646-20.646-16.2646-11.183 0-20.646 7.11577-20.646 16.2646v1.6943c-.86 0-2.151-.3389-3.011-.3389-11.183 0-20.646 7.1158-20.646 16.2646 0 5.0827 3.011 9.1489 7.312 12.1985-10.323.6777-18.065 7.4546-18.065 15.5869 0 7.7935 7.312 14.2316 17.205 15.5869-4.731 2.7108-7.312 6.777-7.312 11.5208 0 8.1323 8.172 14.5703 18.495 14.5703 1.721 0 3.011-.339 4.301-.339-.86 1.694-1.29 3.728-1.29 5.761 0 9.487 9.893 17.281 21.937 17.281 11.183 0 20.215-6.438 21.506-14.909h.43v-92.5055c.43 0 .43-1.6942.43-2.3719z" stroke="#563a5f" stroke-width="3"/><path d="m161.286 19.9591c6.452 0 12.044 3.7273 12.044 8.4712 0 4.7438-5.592 8.4711-12.044 8.4711" stroke="#563a5f" stroke-width="3"/><path d="m161.286 91.1167c6.452 0 12.044 3.7273 12.044 8.4712 0 4.7441-5.592 8.4711-12.044 8.4711" stroke="#563a5f" stroke-width="3"/><path d="m171.609 71.4636c-14.194 0-25.808-9.1489-25.808-20.3308" stroke="#563a5f" stroke-width="3"/><path d="m187.524 18.2646c0-8.80998 9.032-16.2646 20.646-16.2646 11.183 0 20.646 7.11577 20.646 16.2646v1.6943c.86 0 2.151-.3389 3.011-.3389 11.183 0 20.646 7.1158 20.646 16.2646 0 5.0827-3.011 9.1489-7.312 12.1985 10.323.6777 18.065 7.4546 18.065 15.5869 0 7.7935-7.312 14.2316-17.205 15.5869 4.731 2.7108 7.312 6.777 7.312 11.5208 0 8.1323-8.172 14.5703-18.495 14.5703-1.721 0-3.011-.339-4.302-.339.861 1.694 1.291 3.728 1.291 5.761 0 9.487-9.893 17.281-21.937 17.281-11.183 0-20.216-6.438-21.506-14.909h-.43v-92.5055c-.43 0-.43-1.6942-.43-2.3719z" stroke="#563a5f" stroke-width="3"/><path d="m213.761 19.9591c-6.452 0-12.043 3.7273-12.043 8.4712 0 4.7438 5.591 8.4711 12.043 8.4711" stroke="#563a5f" stroke-width="3"/><path d="m213.761 91.1167c-6.452 0-12.043 3.7273-12.043 8.4712 0 4.7441 5.591 8.4711 12.043 8.4711" stroke="#563a5f" stroke-width="3"/><path d="m203.008 71.4636c14.194 0 25.808-9.1489 25.808-20.3308" stroke="#563a5f" stroke-width="3"/><path d="m330.326 111.786h-66.24c-5.591 0-10.323 3.049-10.323 7.116v17.62 17.62 25.074l21.076-17.959h55.056c5.592 0 10.323-3.049 10.323-7.115v-35.24c0-4.067-4.301-7.116-9.892-7.116z" stroke="#563a5f" stroke-width="3"/><path d="m330.326 111.786h-66.24c-5.591 0-10.323 3.049-10.323 7.116v17.62 17.62 25.074l21.076-17.959h55.056c5.592 0 10.323-3.049 10.323-7.115v-35.24c0-4.067-4.301-7.116-9.892-7.116z" stroke="#563a5f" stroke-width="3"/><path d="m275.7 126.357h43.442" stroke="#563a5f" stroke-width="3"/><path d="m275.7 141.604h43.442" stroke="#563a5f" stroke-width="3"/><path d="m213.331 166.34h-52.045v41.001h52.045z" stroke="#563a5f" stroke-width="3"/><path d="m213.331 166.34h-52.045v41.001h52.045z" stroke="#563a5f" stroke-width="3"/><path d="m176.341 181.588 12.043 14.57 12.044-18.297" stroke="#563a5f" stroke-width="3"/></g><path d="m3 234.449 140.221 38.29 44.303-47.778-139.3608-37.612c-.4302-.339-1.2904 0-1.7205.339z" stroke="#563a5f" stroke-width="3"/><path d="m372.048 234.449-140.651 38.29-43.873-47.439 138.93-37.951c.43-.339 1.291 0 1.721.339z" stroke="#563a5f" stroke-width="3"/></g></svg>

<svg width="375" height="343" viewBox="0 0 375 343" fill="none" xmlns="http://www.w3.org/2000/svg">
<path d="M289.033 76.5461C289.463 75.1907 289.893 74.1741 290.754 73.1576L286.022 69.7691C288.173 67.0584 291.184 64.6865 294.625 62.9922L298.926 66.7195C300.216 66.0418 301.507 65.703 302.797 65.3641L303.227 60.2815C304.948 59.9426 307.098 59.6038 309.249 59.6038C311.4 59.6038 313.12 59.9426 315.271 60.2815L314.41 65.3641C315.701 65.703 317.421 66.0418 318.712 66.7195L324.303 63.3311C327.744 65.0253 330.325 67.0584 332.476 69.7691L327.314 73.4965C328.174 74.513 328.605 75.8684 329.035 77.2238H335.917C336.347 78.5791 336.347 79.9345 336.347 81.6288C336.347 83.323 335.917 85.0172 335.487 86.3726H328.605C328.174 87.3891 327.744 88.7445 326.884 89.7611L332.046 93.1495C329.895 95.8603 326.884 98.2322 323.013 100.265L319.142 96.538C317.851 97.2157 316.131 97.8934 314.841 98.2322V102.976C313.12 103.315 310.969 103.654 308.819 103.654C306.668 103.654 304.948 103.315 302.797 102.976V98.2322C301.077 97.8934 299.786 97.2157 298.496 96.8768L294.195 99.9265C290.754 98.2322 288.173 95.8603 286.022 93.1495L290.754 90.4388C289.893 89.4222 289.463 88.0668 288.603 87.0503L282.151 86.7115C281.721 85.0172 281.291 83.6618 281.291 81.9676C281.291 80.6122 281.291 78.918 281.721 77.5626L289.033 76.5461Z" stroke="#563A5F" stroke-width="3" stroke-miterlimit="10"/>
<path d="M289.033 76.5461C289.463 75.1907 289.893 74.1741 290.754 73.1576L286.022 69.7691C288.173 67.0584 291.184 64.6865 294.625 62.9922L298.926 66.7195C300.216 66.0418 301.507 65.703 302.797 65.3641L303.227 60.2815C304.948 59.9426 307.098 59.6038 309.249 59.6038C311.4 59.6038 313.12 59.9426 315.271 60.2815L314.41 65.3641C315.701 65.703 317.421 66.0418 318.712 66.7195L324.303 63.3311C327.744 65.0253 330.325 67.0584 332.476 69.7691L327.314 73.4965C328.174 74.513 328.605 75.8684 329.035 77.2238H335.917C336.347 78.5791 336.347 79.9345 336.347 81.6288C336.347 83.323 335.917 85.0172 335.487 86.3726H328.605C328.174 87.3891 327.744 88.7445 326.884 89.7611L332.046 93.1495C329.895 95.8603 326.884 98.2322 323.013 100.265L319.142 96.538C317.851 97.2157 316.131 97.8934 314.841 98.2322V102.976C313.12 103.315 310.969 103.654 308.819 103.654C306.668 103.654 304.948 103.315 302.797 102.976V98.2322C301.077 97.8934 299.786 97.2157 298.496 96.8768L294.195 99.9265C290.754 98.2322 288.173 95.8603 286.022 93.1495L290.754 90.4388C289.893 89.4222 289.463 88.0668 288.603 87.0503L282.151 86.7115C281.721 85.0172 281.291 83.6618 281.291 81.9676C281.291 80.6122 281.291 78.918 281.721 77.5626L289.033 76.5461Z" stroke="#563A5F" stroke-width="3" stroke-miterlimit="10" stroke-linecap="round" stroke-linejoin="round"/>
<path d="M322.583 78.9182C324.303 86.7116 316.131 93.1497 306.238 91.7943C300.646 91.1166 296.345 87.3893 295.485 83.3232C293.764 75.5297 301.937 69.0916 311.829 70.447C317.421 71.1247 321.722 74.852 322.583 78.9182Z" stroke="#563A5F" stroke-width="3" stroke-miterlimit="10"/>
<path d="M322.583 78.9182C324.303 86.7116 316.131 93.1497 306.238 91.7943C300.646 91.1166 296.345 87.3893 295.485 83.3232C293.764 75.5297 301.937 69.0916 311.829 70.447C317.421 71.1247 321.722 74.852 322.583 78.9182Z" stroke="#563A5F" stroke-width="3" stroke-miterlimit="10" stroke-linecap="round" stroke-linejoin="round"/>
<path d="M187.524 341.185L45.5826 298.49V189.382C45.5826 188.026 46.873 187.349 48.5935 187.687L187.524 225.299" stroke="#563A5F" stroke-width="3" stroke-miterlimit="10" stroke-linecap="round" stroke-linejoin="round"/>
<path d="M187.524 341.186L329.035 298.491V187.01L187.524 225.3" stroke="#563A5F" stroke-width="3" stroke-miterlimit="10" stroke-linecap="round" stroke-linejoin="round"/>
<path d="M96.3372 73.1573C96.3372 56.8926 79.5623 44.0165 59.3464 44.0165C38.7004 44.0165 22.3557 57.2315 22.3557 73.1573C22.3557 85.0169 31.3883 95.1823 44.292 99.9261V117.885H74.8309V99.9261C87.3046 95.5211 96.3372 85.0169 96.3372 73.1573Z" stroke="#563A5F" stroke-width="3" stroke-miterlimit="10" stroke-linecap="round" stroke-linejoin="round"/>
<path d="M43.862 125H74.4009" stroke="#563A5F" stroke-width="3" stroke-miterlimit="10" stroke-linecap="round" stroke-linejoin="round"/>
<path d="M43.862 131.777H74.4009" stroke="#563A5F" stroke-width="3" stroke-miterlimit="10" stroke-linecap="round" stroke-linejoin="round"/>
<path d="M49.8838 138.554H68.3792" stroke="#563A5F" stroke-width="3" stroke-miterlimit="10" stroke-linecap="round" stroke-linejoin="round"/>
<path d="M213.331 307.978L244.731 299.168" stroke="#563A5F" stroke-width="3" stroke-miterlimit="10" stroke-linecap="round" stroke-linejoin="round"/>
<path d="M48.1632 186.332L187.524 147.365L329.035 187.01" stroke="#563A5F" stroke-width="3" stroke-miterlimit="10" stroke-linecap="round" stroke-linejoin="round"/>
<path d="M187.524 225.299V341.184" stroke="#563A5F" stroke-width="3" stroke-miterlimit="10" stroke-linecap="round" stroke-linejoin="round"/>
<path d="M126.016 161.597C126.016 171.762 115.693 179.894 102.789 179.894C89.8856 179.894 79.5626 171.762 79.5626 161.597C79.5626 151.431 89.8856 143.299 102.789 143.299C115.693 143.299 126.016 151.431 126.016 161.597Z" stroke="#3B3B45" stroke-width="2" stroke-miterlimit="10" stroke-linecap="round" stroke-linejoin="round"/>
<path d="M126.016 161.597C126.016 171.762 115.693 179.894 102.789 179.894C89.8856 179.894 79.5626 171.762 79.5626 161.597C79.5626 151.431 89.8856 143.299 102.789 143.299C115.693 143.299 126.016 151.431 126.016 161.597Z" stroke="#563A5F" stroke-width="3" stroke-miterlimit="10" stroke-linecap="round" stroke-linejoin="round"/>
<path d="M103.219 150.076V170.745" stroke="#563A5F" stroke-width="3" stroke-miterlimit="10" stroke-linecap="round" stroke-linejoin="round"/>
<path d="M89.8852 160.58H116.123" stroke="#563A5F" stroke-width="3" stroke-miterlimit="10" stroke-linecap="round" stroke-linejoin="round"/>
<path d="M187.524 18.2646C187.524 9.45462 178.491 2 166.878 2C155.695 2 146.232 9.11577 146.232 18.2646C146.232 18.9423 146.232 19.2812 146.232 19.9589C145.372 19.9589 144.081 19.62 143.221 19.62C132.038 19.62 122.575 26.7358 122.575 35.8846C122.575 40.9673 125.586 45.0335 129.887 48.0831C119.564 48.7608 111.822 55.5377 111.822 63.67C111.822 71.4635 119.134 77.9016 129.027 79.2569C124.296 81.9677 121.715 86.0339 121.715 90.7777C121.715 98.91 129.887 105.348 140.21 105.348C141.931 105.348 143.221 105.009 144.511 105.009C143.651 106.703 143.221 108.737 143.221 110.77C143.221 120.257 153.114 128.051 165.158 128.051C176.341 128.051 185.373 121.613 186.664 113.142H187.094V20.6365C187.524 20.6365 187.524 18.9423 187.524 18.2646Z" stroke="#563A5F" stroke-width="3" stroke-miterlimit="10" stroke-linecap="round" stroke-linejoin="round"/>
<path d="M161.286 19.9591C167.738 19.9591 173.33 23.6864 173.33 28.4303C173.33 33.1741 167.738 36.9014 161.286 36.9014" stroke="#563A5F" stroke-width="3" stroke-miterlimit="10" stroke-linecap="round" stroke-linejoin="round"/>
<path d="M161.286 91.1167C167.738 91.1167 173.33 94.844 173.33 99.5879C173.33 104.332 167.738 108.059 161.286 108.059" stroke="#563A5F" stroke-width="3" stroke-miterlimit="10" stroke-linecap="round" stroke-linejoin="round"/>
<path d="M171.609 71.4636C157.415 71.4636 145.801 62.3147 145.801 51.1328" stroke="#563A5F" stroke-width="3" stroke-miterlimit="10" stroke-linecap="round" stroke-linejoin="round"/>
<path d="M187.524 18.2646C187.524 9.45462 196.556 2 208.17 2C219.353 2 228.816 9.11577 228.816 18.2646C228.816 18.9423 228.816 19.2812 228.816 19.9589C229.676 19.9589 230.967 19.62 231.827 19.62C243.01 19.62 252.473 26.7358 252.473 35.8846C252.473 40.9673 249.462 45.0335 245.161 48.0831C255.484 48.7608 263.226 55.5377 263.226 63.67C263.226 71.4635 255.914 77.9016 246.021 79.2569C250.752 81.9677 253.333 86.0339 253.333 90.7777C253.333 98.91 245.161 105.348 234.838 105.348C233.117 105.348 231.827 105.009 230.536 105.009C231.397 106.703 231.827 108.737 231.827 110.77C231.827 120.257 221.934 128.051 209.89 128.051C198.707 128.051 189.674 121.613 188.384 113.142H187.954V20.6365C187.524 20.6365 187.524 18.9423 187.524 18.2646Z" stroke="#563A5F" stroke-width="3" stroke-miterlimit="10" stroke-linecap="round" stroke-linejoin="round"/>
<path d="M213.761 19.9591C207.309 19.9591 201.718 23.6864 201.718 28.4303C201.718 33.1741 207.309 36.9014 213.761 36.9014" stroke="#563A5F" stroke-width="3" stroke-miterlimit="10" stroke-linecap="round" stroke-linejoin="round"/>
<path d="M213.761 91.1167C207.309 91.1167 201.718 94.844 201.718 99.5879C201.718 104.332 207.309 108.059 213.761 108.059" stroke="#563A5F" stroke-width="3" stroke-miterlimit="10" stroke-linecap="round" stroke-linejoin="round"/>
<path d="M203.008 71.4636C217.202 71.4636 228.816 62.3147 228.816 51.1328" stroke="#563A5F" stroke-width="3" stroke-miterlimit="10" stroke-linecap="round" stroke-linejoin="round"/>
<path d="M330.326 111.786H264.086C258.495 111.786 253.763 114.835 253.763 118.902V136.522V154.142V179.216L274.839 161.257H329.895C335.487 161.257 340.218 158.208 340.218 154.142V118.902C340.218 114.835 335.917 111.786 330.326 111.786Z" stroke="#563A5F" stroke-width="3" stroke-miterlimit="10" stroke-linecap="round" stroke-linejoin="round"/>
<path d="M330.326 111.786H264.086C258.495 111.786 253.763 114.835 253.763 118.902V136.522V154.142V179.216L274.839 161.257H329.895C335.487 161.257 340.218 158.208 340.218 154.142V118.902C340.218 114.835 335.917 111.786 330.326 111.786Z" stroke="#563A5F" stroke-width="3" stroke-miterlimit="10" stroke-linecap="round" stroke-linejoin="round"/>
<path d="M275.7 126.357H319.142" stroke="#563A5F" stroke-width="3" stroke-miterlimit="10" stroke-linecap="round" stroke-linejoin="round"/>
<path d="M275.7 141.604H319.142" stroke="#563A5F" stroke-width="3" stroke-miterlimit="10" stroke-linecap="round" stroke-linejoin="round"/>
<path d="M213.331 166.34H161.286V207.341H213.331V166.34Z" stroke="#563A5F" stroke-width="3" stroke-miterlimit="10" stroke-linecap="round" stroke-linejoin="round"/>
<path d="M213.331 166.34H161.286V207.341H213.331V166.34Z" stroke="#563A5F" stroke-width="3" stroke-miterlimit="10" stroke-linecap="round" stroke-linejoin="round"/>
<path d="M176.341 181.588L188.384 196.158L200.428 177.861" stroke="#563A5F" stroke-width="3" stroke-miterlimit="10" stroke-linecap="round" stroke-linejoin="round"/>
<path d="M3 234.449L143.221 272.739L187.524 224.961L48.1632 187.349C47.733 187.01 46.8728 187.349 46.4427 187.688L3 234.449Z" stroke="#563A5F" stroke-width="3" stroke-miterlimit="10"/>
<path d="M372.048 234.449L231.397 272.739L187.524 225.3L326.454 187.349C326.884 187.01 327.745 187.349 328.175 187.688L372.048 234.449Z" stroke="#563A5F" stroke-width="3" stroke-miterlimit="10"/>
</svg>
